X: 1
T: Siuil A Ruin
R: barndance
M: 4/4
L: 1/8
K: Edor
|: B4 A2 BA | E2 D2 E3 F | E2 F2 GG dB | AG ED D4 |
E3 F GG AG | E2 D2 E4 | GA B4 A2- | AB AG ED E2- | E4 z2 GA |
B2 G2 A2 BA | E2 D2 E3 D | E2 F2 G2 dB | AG EF D3 D |
E2 F2 G2 AG | E2 D2 E4 | GA B4 A2- | AB AG ED E2- | E4 z4 :|


Tune 6756	Setting 18377

